X: 10545
T: Dorchester, The
R: hornpipe
M: 4/4
K: Amajor
|:cB|AECE AcAc|fefg a2gf|eaec BABc|BGEG BGEG|
AECE AcAc|fefg a2 gf|eaec BABc|A2 A2 A2:|
|:e2|ceAe AcAc|dfBf dfBf|ceAe ceAe|BGEG BGEG|
AECE AcAc|fefg a2 gf|eaec BABc|A2 A2 A2:|

